flaticon/business/presentation-6.svg

<svg xmlns="http://www.w3.org/2000/svg" width="32" height="32" viewBox="0 0 24 24">
    <path d="M 24 3.199219 L 24 0 L 0 0 L 0 3.199219 L 0.800781 3.199219 L 0.800781 19.199219 L 0.398438 19.199219 C 0.179688 19.199219 0 19.378906 0 19.601562 C 0 19.820312 0.179688 20 0.398438 20 L 11.601562 20 L 11.601562 20.800781 C 11.601562 20.820312 11.609375 20.835938 11.609375 20.855469 C 10.917969 21.027344 10.398438 21.652344 10.398438 22.398438 C 10.398438 23.28125 11.117188 24 12 24 C 12.882812 24 13.601562 23.28125 13.601562 22.398438 C 13.601562 21.652344 13.082031 21.027344 12.390625 20.855469 C 12.390625 20.835938 12.398438 20.820312 12.398438 20.800781 L 12.398438 20 L 23.601562 20 C 23.820312 20 24 19.820312 24 19.601562 C 24 19.378906 23.820312 19.199219 23.601562 19.199219 L 23.199219 19.199219 L 23.199219 3.199219 Z M 12.800781 22.398438 C 12.800781 22.839844 12.441406 23.199219 12 23.199219 C 11.558594 23.199219 11.199219 22.839844 11.199219 22.398438 C 11.199219 21.957031 11.558594 21.601562 12 21.601562 C 12.441406 21.601562 12.800781 21.957031 12.800781 22.398438 Z M 0.800781 0.800781 L 23.199219 0.800781 L 23.199219 2.398438 L 0.800781 2.398438 Z M 22.398438 19.199219 L 1.601562 19.199219 L 1.601562 3.199219 L 22.398438 3.199219 Z M 22.398438 19.199219"/>
    <path d="M 12 17.601562 C 15.527344 17.601562 18.398438 14.730469 18.398438 11.199219 C 18.398438 7.671875 15.527344 4.800781 12 4.800781 C 8.472656 4.800781 5.601562 7.671875 5.601562 11.199219 C 5.601562 14.730469 8.472656 17.601562 12 17.601562 Z M 12 5.601562 C 15.089844 5.601562 17.601562 8.113281 17.601562 11.199219 C 17.601562 14.289062 15.089844 16.800781 12 16.800781 C 8.910156 16.800781 6.398438 14.289062 6.398438 11.199219 C 6.398438 8.113281 8.910156 5.601562 12 5.601562 Z M 12 5.601562"/>
    <path d="M 10.207031 14.351562 C 10.269531 14.382812 10.335938 14.398438 10.398438 14.398438 C 10.476562 14.398438 10.550781 14.378906 10.613281 14.335938 L 15.015625 11.539062 C 15.128906 11.464844 15.199219 11.335938 15.199219 11.199219 C 15.199219 11.0625 15.128906 10.9375 15.015625 10.863281 L 10.613281 8.0625 C 10.492188 7.984375 10.335938 7.980469 10.207031 8.050781 C 10.078125 8.121094 10 8.253906 10 8.398438 L 10 14 C 10 14.144531 10.078125 14.28125 10.207031 14.351562 Z M 10.800781 9.128906 L 14.054688 11.199219 L 10.800781 13.273438 Z M 10.800781 9.128906"/>
</svg>

<svg xmlns="http://www.w3.org/2000/svg" width="32" height="32" viewBox="0 0 24 24">
    <path d="M24 3.2V0H0v3.2h.8v16H.399a.401.401 0 0 0 0 .8h11.204v.8c0 .02.007.036.007.055a1.596 1.596 0 0 0-1.21 1.543c0 .883.718 1.602 1.601 1.602s1.602-.719 1.602-1.602c0-.746-.52-1.37-1.211-1.543 0-.02.007-.035.007-.054V20h11.204a.4.4 0 0 0 0-.8h-.403v-16zM12.8 22.397a.802.802 0 0 1-1.6 0c0-.441.359-.796.8-.796.441 0 .8.355.8.796zM.8.801h22.4v1.597H.8zm21.598 18.398H1.602v-16h20.796zm0 0"/>
    <path d="M12 17.602c3.527 0 6.398-2.872 6.398-6.403A6.407 6.407 0 0 0 12 4.801a6.407 6.407 0 0 0-6.398 6.398c0 3.531 2.87 6.403 6.398 6.403zm0-12a5.606 5.606 0 0 1 5.602 5.597A5.606 5.606 0 0 1 12 16.801a5.606 5.606 0 0 1-5.602-5.602A5.606 5.606 0 0 1 12 5.602zm0 0"/>
    <path d="M10.207 14.352a.432.432 0 0 0 .191.046c.079 0 .153-.02.215-.062l4.403-2.797a.402.402 0 0 0 0-.676l-4.403-2.8a.398.398 0 0 0-.406-.012.395.395 0 0 0-.207.347V14a.4.4 0 0 0 .207.352zm.594-5.223l3.254 2.07-3.254 2.074zm0 0"/>
</svg>
